X:1
T:It Ain't Me, Babe
M:4/4
L:1/2
K:E
 G G| G3/2 B/2| G F-| F2| G G/2 B/2| G G/2 F/2| E2-| E2| G G/2 G/2|\
 G3/2 B/2| G F-| F2| F G/2 B/2| G G/2- F/2| E2-| E2| G G/2 G/2| G/2 B3/2|\
 G F/2 F/2-| F E/2 F/2| G3/2 G/2| B G| F2-| F G/2 G/2| G/2 G3/2| B3/2 G/2|\
 G/2 F3/2-| F G/2 G/2| G G| B3/2 G/2| F2-| F c| c3/4 c/4 c/2 c/2| c3/4 c/4 B/2 c/2|\
 d2-| d B/4B/4 B/2| B E-| E2-| E e| d c/4B/4 B/2| B E-| E- E/4A/4 A/2|\
 A G| F/2 F3/2| E E-| E2-| E2-| E2|
